material/.icons/material/file-move.svg

<svg xmlns="http://www.w3.org/2000/svg" viewBox="0 0 24 24"><path d="M14 17h4v-3l5 4.5-5 4.5v-3h-4v-3m-1-8h5.5L13 3.5V9M6 2h8l6 6v4.34c-.63-.22-1.3-.34-2-.34a6 6 0 00-6 6c0 1.54.58 2.94 1.53 4H6a2 2 0 01-2-2V4a2 2 0 012-2z"/></svg>

<?xml version="1.0" encoding="UTF-8"?><!DOCTYPE svg PUBLIC "-//W3C//DTD SVG 1.1//EN" "http://www.w3.org/Graphics/SVG/1.1/DTD/svg11.dtd"><svg xmlns="http://www.w3.org/2000/svg" xmlns:xlink="http://www.w3.org/1999/xlink" version="1.1" id="mdi-file-move" width="24" height="24" viewBox="0 0 24 24"><path d="M14,17H18V14L23,18.5L18,23V20H14V17M13,9H18.5L13,3.5V9M6,2H14L20,8V12.34C19.37,12.12 18.7,12 18,12A6,6 0 0,0 12,18C12,19.54 12.58,20.94 13.53,22H6C4.89,22 4,21.1 4,20V4A2,2 0 0,1 6,2Z" /></svg>
